svg/emoji_u1f506.svg

<?xml version="1.0" encoding="UTF-8"?>
<svg width="128" height="128" enable-background="new 0 0 128 128" xmlns="http://www.w3.org/2000/svg"><linearGradient id="a" x1="64" x2="64" y1="3.4825" y2="124.52" gradientUnits="userSpaceOnUse"><stop stop-color="#FFAB40" offset="0"/><stop stop-color="#FF6D00" offset="1"/></linearGradient><path d="m64 36c-15.46 0-28 12.54-28 28s12.54 28 28 28 28-12.54 28-28-12.54-28-28-28zm0 44c-8.82 0-16-7.18-16-16s7.18-16 16-16 16 7.18 16 16-7.18 16-16 16z" fill="url(#a)"/><path d="m60 28h8c1.1 0 2-0.9 2-2v-20c0-1.1-0.9-2-2-2h-8c-1.1 0-2 0.9-2 2v20c0 1.1 0.9 2 2 2z" fill="url(#a)"/><path d="m68 100h-8c-1.1 0-2 0.9-2 2v20c0 1.1 0.9 2 2 2h8c1.1 0 2-0.9 2-2v-20c0-1.1-0.9-2-2-2z" fill="url(#a)"/><linearGradient id="e" x1="112" x2="112" y1="3.4825" y2="124.52" gradientUnits="userSpaceOnUse"><stop stop-color="#FFAB40" offset="0"/><stop stop-color="#FF6D00" offset="1"/></linearGradient><path d="m122 58h-20c-1.1 0-2 0.9-2 2v8c0 1.1 0.9 2 2 2h20c1.1 0 2-0.9 2-2v-8c0-1.1-0.9-2-2-2z" fill="url(#e)"/><linearGradient id="d" x1="16" x2="16" y1="3.4825" y2="124.52" gradientUnits="userSpaceOnUse"><stop stop-color="#FFAB40" offset="0"/><stop stop-color="#FF6D00" offset="1"/></linearGradient><path d="m28 68v-8c0-1.1-0.9-2-2-2h-20c-1.1 0-2 0.9-2 2v8c0 1.1 0.9 2 2 2h20c1.1 0 2-0.9 2-2z" fill="url(#d)"/><linearGradient id="c" x1="98.1" x2="98.1" y1="3.4825" y2="124.52" gradientUnits="userSpaceOnUse"><stop stop-color="#FFAB40" offset="0"/><stop stop-color="#FF6D00" offset="1"/></linearGradient><path d="m92.44 41.37c0.78 0.78 2.05 0.78 2.83 0l14.14-14.14c0.78-0.78 0.78-2.05 0-2.83l-5.66-5.66c-0.78-0.78-2.05-0.78-2.83 0l-14.13 14.15c-0.78 0.78-0.78 2.05 0 2.83l5.65 5.65z" fill="url(#c)"/><linearGradient id="b" x1="30.218" x2="30.218" y1="3.4825" y2="124.52" gradientUnits="userSpaceOnUse"><stop stop-color="#FFAB40" offset="0"/><stop stop-color="#FF6D00" offset="1"/></linearGradient><path d="m35.88 86.63c-0.78-0.78-2.05-0.78-2.83 0l-14.15 14.14c-0.78 0.78-0.78 2.05 0 2.83l5.66 5.66c0.78 0.78 2.05 0.78 2.83 0l14.14-14.14c0.78-0.78 0.78-2.05 0-2.83l-5.65-5.66z" fill="url(#b)"/><path d="m95.27 86.63c-0.78-0.78-2.05-0.78-2.83 0l-5.66 5.66c-0.78 0.78-0.78 2.05 0 2.83l14.14 14.14c0.78 0.78 2.05 0.78 2.83 0l5.66-5.66c0.78-0.78 0.78-2.05 0-2.83l-14.14-14.14z" fill="url(#c)"/><path d="M33.05,41.37c0.78,0.78,2.05,0.78,2.83,0l5.66-5.66c0.78-0.78,0.78-2.05,0-2.83L27.39,18.75 c-0.78-0.78-2.05-0.78-2.83,0L18.9,24.4c-0.78,0.78-0.78,2.05,0,2.83L33.05,41.37z" fill="url(#b)"/><g fill="#424242" opacity=".2"><path d="m64 39c13.79 0 25 11.21 25 25s-11.21 25-25 25-25-11.21-25-25 11.21-25 25-25m0 44c10.48 0 19-8.52 19-19s-8.52-19-19-19-19 8.52-19 19 8.52 19 19 19m0-47c-15.46 0-28 12.54-28 28s12.54 28 28 28 28-12.54 28-28-12.54-28-28-28zm0 44c-8.82 0-16-7.18-16-16s7.18-16 16-16 16 7.18 16 16-7.18 16-16 16z"/><path d="m67 7v18h-6v-18h6m1-3h-8c-1.1 0-2 0.9-2 2v20c0 1.1 0.9 2 2 2h8c1.1 0 2-0.9 2-2v-20c0-1.1-0.9-2-2-2z"/><path d="m67 103v18h-6v-18h6m1-3h-8c-1.1 0-2 0.9-2 2v20c0 1.1 0.9 2 2 2h8c1.1 0 2-0.9 2-2v-20c0-1.1-0.9-2-2-2z"/><path d="m121 61v6h-18v-6h18m1-3h-20c-1.1 0-2 0.9-2 2v8c0 1.1 0.9 2 2 2h20c1.1 0 2-0.9 2-2v-8c0-1.1-0.9-2-2-2z"/><path d="m25 61v6h-18v-6h18m1-3h-20c-1.1 0-2 0.9-2 2v8c0 1.1 0.9 2 2 2h20c1.1 0 2-0.9 2-2v-8c0-1.1-0.9-2-2-2z"/><path d="m102.34 21.57 4.24 4.24-12.72 12.73-4.24-4.24 12.72-12.73m0-3.41c-0.51 0-1.02 0.2-1.41 0.59l-14.14 14.14c-0.78 0.78-0.78 2.05 0 2.83l5.66 5.66c0.39 0.39 0.9 0.59 1.41 0.59s1.02-0.2 1.41-0.59l14.14-14.14c0.78-0.78 0.78-2.05 0-2.83l-5.66-5.66c-0.38-0.4-0.9-0.59-1.41-0.59z"/><path d="m34.46 89.46 4.24 4.24-12.73 12.73-4.24-4.24 12.73-12.73m0-3.42c-0.51 0-1.02 0.2-1.41 0.59l-14.15 14.14c-0.78 0.78-0.78 2.05 0 2.83l5.66 5.66c0.39 0.39 0.9 0.59 1.41 0.59s1.02-0.2 1.41-0.59l14.14-14.14c0.78-0.78 0.78-2.05 0-2.83l-5.66-5.66c-0.38-0.39-0.89-0.59-1.4-0.59z"/><path d="m93.86 89.46 12.73 12.73-4.24 4.24-12.73-12.73 4.24-4.24m0-3.42c-0.51 0-1.02 0.2-1.41 0.59l-5.66 5.66c-0.78 0.78-0.78 2.05 0 2.83l14.14 14.14c0.39 0.39 0.9 0.59 1.41 0.59s1.02-0.2 1.41-0.59l5.66-5.66c0.78-0.78 0.78-2.05 0-2.83l-14.14-14.14c-0.39-0.39-0.9-0.59-1.41-0.59z"/><path d="m25.98 21.57 12.72 12.73-4.24 4.24-12.73-12.72 4.25-4.25m0-3.41c-0.51 0-1.02 0.2-1.41 0.59l-5.67 5.65c-0.78 0.78-0.78 2.05 0 2.83l14.14 14.14c0.39 0.39 0.9 0.59 1.41 0.59s1.02-0.2 1.41-0.59l5.66-5.66c0.78-0.78 0.78-2.05 0-2.83l-14.13-14.13c-0.39-0.4-0.9-0.59-1.41-0.59z"/></g></svg>

<svg width="128" height="128" style="enable-background:new 0 0 128 128;" xmlns="http://www.w3.org/2000/svg" xmlns:xlink="http://www.w3.org/1999/xlink">
  <g>
    <g>
      <linearGradient id="SVGID_1_" gradientUnits="userSpaceOnUse" x1="64" x2="64" y1="3.4825" y2="124.5193">
        <stop offset="0" style="stop-color:#FFAB40"/>
        <stop offset="1" style="stop-color:#FF6D00"/>
      </linearGradient>
      <path d="M64,36c-15.46,0-28,12.54-28,28c0,15.46,12.54,28,28,28s28-12.54,28-28 C92,48.54,79.46,36,64,36z M64,80c-8.82,0-16-7.18-16-16s7.18-16,16-16s16,7.18,16,16S72.82,80,64,80z" style="fill:url(#SVGID_1_);"/>
      <linearGradient id="SVGID_2_" gradientUnits="userSpaceOnUse" x1="64" x2="64" y1="3.4825" y2="124.5193">
        <stop offset="0" style="stop-color:#FFAB40"/>
        <stop offset="1" style="stop-color:#FF6D00"/>
      </linearGradient>
      <path d="M60,28h8c1.1,0,2-0.9,2-2V6c0-1.1-0.9-2-2-2h-8c-1.1,0-2,0.9-2,2v20C58,27.1,58.9,28,60,28z " style="fill:url(#SVGID_2_);"/>
      <linearGradient id="SVGID_3_" gradientUnits="userSpaceOnUse" x1="64" x2="64" y1="3.4825" y2="124.5193">
        <stop offset="0" style="stop-color:#FFAB40"/>
        <stop offset="1" style="stop-color:#FF6D00"/>
      </linearGradient>
      <path d="M68,100h-8c-1.1,0-2,0.9-2,2v20c0,1.1,0.9,2,2,2h8c1.1,0,2-0.9,2-2v-20 C70,100.9,69.1,100,68,100z" style="fill:url(#SVGID_3_);"/>
      <linearGradient id="SVGID_4_" gradientUnits="userSpaceOnUse" x1="112" x2="112" y1="3.4825" y2="124.5193">
        <stop offset="0" style="stop-color:#FFAB40"/>
        <stop offset="1" style="stop-color:#FF6D00"/>
      </linearGradient>
      <path d="M122,58h-20c-1.1,0-2,0.9-2,2v8c0,1.1,0.9,2,2,2h20c1.1,0,2-0.9,2-2v-8 C124,58.9,123.1,58,122,58z" style="fill:url(#SVGID_4_);"/>
      <linearGradient id="SVGID_5_" gradientUnits="userSpaceOnUse" x1="16" x2="16" y1="3.4825" y2="124.5193">
        <stop offset="0" style="stop-color:#FFAB40"/>
        <stop offset="1" style="stop-color:#FF6D00"/>
      </linearGradient>
      <path d="M28,68v-8c0-1.1-0.9-2-2-2H6c-1.1,0-2,0.9-2,2v8c0,1.1,0.9,2,2,2h20C27.1,70,28,69.1,28,68z " style="fill:url(#SVGID_5_);"/>
      <linearGradient id="SVGID_6_" gradientUnits="userSpaceOnUse" x1="98.1005" x2="98.1005" y1="3.4825" y2="124.5193">
        <stop offset="0" style="stop-color:#FFAB40"/>
        <stop offset="1" style="stop-color:#FF6D00"/>
      </linearGradient>
      <path d="M92.44,41.37c0.78,0.78,2.05,0.78,2.83,0l14.14-14.14c0.78-0.78,0.78-2.05,0-2.83 l-5.66-5.66c-0.78-0.78-2.05-0.78-2.83,0L86.79,32.89c-0.78,0.78-0.78,2.05,0,2.83L92.44,41.37z" style="fill:url(#SVGID_6_);"/>
      <linearGradient id="SVGID_7_" gradientUnits="userSpaceOnUse" x1="30.2182" x2="30.2182" y1="3.4825" y2="124.5193">
        <stop offset="0" style="stop-color:#FFAB40"/>
        <stop offset="1" style="stop-color:#FF6D00"/>
      </linearGradient>
      <path d="M35.88,86.63c-0.78-0.78-2.05-0.78-2.83,0L18.9,100.77c-0.78,0.78-0.78,2.05,0,2.83 l5.66,5.66c0.78,0.78,2.05,0.78,2.83,0l14.14-14.14c0.78-0.78,0.78-2.05,0-2.83L35.88,86.63z" style="fill:url(#SVGID_7_);"/>
      <linearGradient id="SVGID_8_" gradientUnits="userSpaceOnUse" x1="98.1005" x2="98.1005" y1="3.4825" y2="124.5193">
        <stop offset="0" style="stop-color:#FFAB40"/>
        <stop offset="1" style="stop-color:#FF6D00"/>
      </linearGradient>
      <path d="M95.27,86.63c-0.78-0.78-2.05-0.78-2.83,0l-5.66,5.66c-0.78,0.78-0.78,2.05,0,2.83 l14.14,14.14c0.78,0.78,2.05,0.78,2.83,0l5.66-5.66c0.78-0.78,0.78-2.05,0-2.83L95.27,86.63z" style="fill:url(#SVGID_8_);"/>
      <linearGradient id="SVGID_9_" gradientUnits="userSpaceOnUse" x1="30.2182" x2="30.2182" y1="3.4825" y2="124.5193">
        <stop offset="0" style="stop-color:#FFAB40"/>
        <stop offset="1" style="stop-color:#FF6D00"/>
      </linearGradient>
      <path d="M33.05,41.37c0.78,0.78,2.05,0.78,2.83,0l5.66-5.66c0.78-0.78,0.78-2.05,0-2.83L27.39,18.75 c-0.78-0.78-2.05-0.78-2.83,0L18.9,24.4c-0.78,0.78-0.78,2.05,0,2.83L33.05,41.37z" style="fill:url(#SVGID_9_);"/>
    </g>
    <g style="opacity:0.2;">
      <path d="M64,39c13.79,0,25,11.21,25,25S77.79,89,64,89S39,77.79,39,64S50.21,39,64,39 M64,83 c10.48,0,19-8.52,19-19s-8.52-19-19-19s-19,8.52-19,19S53.52,83,64,83 M64,36c-15.46,0-28,12.54-28,28c0,15.46,12.54,28,28,28 s28-12.54,28-28C92,48.54,79.46,36,64,36L64,36z M64,80c-8.82,0-16-7.18-16-16s7.18-16,16-16s16,7.18,16,16S72.82,80,64,80L64,80 z" style="fill:#424242;"/>
      <path d="M67,7v18h-6V7H67 M68,4h-8c-1.1,0-2,0.9-2,2v20c0,1.1,0.9,2,2,2h8c1.1,0,2-0.9,2-2V6 C70,4.9,69.1,4,68,4L68,4z" style="fill:#424242;"/>
      <path d="M67,103v18h-6v-18H67 M68,100h-8c-1.1,0-2,0.9-2,2v20c0,1.1,0.9,2,2,2h8c1.1,0,2-0.9,2-2v-20 C70,100.9,69.1,100,68,100L68,100z" style="fill:#424242;"/>
      <path d="M121,61v6h-18v-6H121 M122,58h-20c-1.1,0-2,0.9-2,2v8c0,1.1,0.9,2,2,2h20c1.1,0,2-0.9,2-2v-8 C124,58.9,123.1,58,122,58L122,58z" style="fill:#424242;"/>
      <path d="M25,61v6H7v-6H25 M26,58H6c-1.1,0-2,0.9-2,2v8c0,1.1,0.9,2,2,2h20c1.1,0,2-0.9,2-2v-8 C28,58.9,27.1,58,26,58L26,58z" style="fill:#424242;"/>
      <path d="M102.34,21.57l4.24,4.24L93.86,38.54l-4.24-4.24L102.34,21.57 M102.34,18.16 c-0.51,0-1.02,0.2-1.41,0.59L86.79,32.89c-0.78,0.78-0.78,2.05,0,2.83l5.66,5.66c0.39,0.39,0.9,0.59,1.41,0.59 s1.02-0.2,1.41-0.59l14.14-14.14c0.78-0.78,0.78-2.05,0-2.83l-5.66-5.66C103.37,18.35,102.85,18.16,102.34,18.16L102.34,18.16z" style="fill:#424242;"/>
      <path d="M34.46,89.46l4.24,4.24l-12.73,12.73l-4.24-4.24L34.46,89.46 M34.46,86.04 c-0.51,0-1.02,0.2-1.41,0.59L18.9,100.77c-0.78,0.78-0.78,2.05,0,2.83l5.66,5.66c0.39,0.39,0.9,0.59,1.41,0.59 s1.02-0.2,1.41-0.59l14.14-14.14c0.78-0.78,0.78-2.05,0-2.83l-5.66-5.66C35.48,86.24,34.97,86.04,34.46,86.04L34.46,86.04z" style="fill:#424242;"/>
      <path d="M93.86,89.46l12.73,12.73l-4.24,4.24L89.62,93.7L93.86,89.46 M93.86,86.04 c-0.51,0-1.02,0.2-1.41,0.59l-5.66,5.66c-0.78,0.78-0.78,2.05,0,2.83l14.14,14.14c0.39,0.39,0.9,0.59,1.41,0.59 s1.02-0.2,1.41-0.59l5.66-5.66c0.78-0.78,0.78-2.05,0-2.83L95.27,86.63C94.88,86.24,94.37,86.04,93.86,86.04L93.86,86.04z" style="fill:#424242;"/>
      <path d="M25.98,21.57L38.7,34.3l-4.24,4.24L21.73,25.82L25.98,21.57 M25.98,18.16 c-0.51,0-1.02,0.2-1.41,0.59L18.9,24.4c-0.78,0.78-0.78,2.05,0,2.83l14.14,14.14c0.39,0.39,0.9,0.59,1.41,0.59 s1.02-0.2,1.41-0.59l5.66-5.66c0.78-0.78,0.78-2.05,0-2.83L27.39,18.75C27,18.35,26.49,18.16,25.98,18.16L25.98,18.16z" style="fill:#424242;"/>
    </g>
  </g>
</svg>
